assets/sonr-icons/chart-up.svg

<svg xmlns="http://www.w3.org/2000/svg" width="24" height="24" fill="none" viewBox="0 0 24 24"><path fill="#000" d="M4.31899 3.35905C4.31899 2.82885 3.88919 2.39905 3.35899 2.39905C2.8288 2.39905 2.39899 2.82885 2.39899 3.35905L2.39899 19.1338C2.39896 19.3761 2.39893 19.6123 2.41533 19.8123C2.43333 20.032 2.47583 20.2916 2.60955 20.5527L2.61011 20.5538C2.7935 20.9107 3.08431 21.2055 3.449 21.3908C3.70907 21.5232 3.96721 21.5657 4.18701 21.5837C4.3869 21.6001 4.62287 21.6001 4.8652 21.6L20.64 21.6C21.1702 21.6 21.6 21.1702 21.6 20.64C21.6 20.1099 21.1702 19.68 20.64 19.68H4.89599C4.61108 19.68 4.45562 19.6793 4.34398 19.6701L4.33008 19.6689L4.32891 19.6555C4.31974 19.5437 4.31899 19.388 4.31899 19.103V3.35905Z"/><path fill="#000" fill-rule="evenodd" d="M20.3805 8.81644C20.743 8.42954 20.7233 7.82203 20.3364 7.45951C19.9495 7.097 19.342 7.11676 18.9795 7.50366L15.3164 11.4131L12.3182 9.85594L12.2822 9.83695C12.1526 9.76791 11.889 9.62746 11.5955 9.59936L11.5847 9.59844C11.3427 9.57803 11.0929 9.6181 10.862 9.72391C10.5894 9.84834 10.3849 10.0725 10.2871 10.1797L10.2596 10.2095L6.49846 14.2237C6.13594 14.6106 6.1557 15.2181 6.5426 15.5806C6.92949 15.9431 7.53701 15.9233 7.89953 15.5364L11.5626 11.627L14.5608 13.1842L14.5968 13.2032C14.7263 13.2722 14.99 13.4126 15.2835 13.4407L15.2943 13.4417C15.5372 13.4621 15.7879 13.4217 16.0196 13.315L16.0229 13.3135C16.2892 13.1896 16.4911 12.9699 16.5892 12.8631L16.6172 12.8329L20.3805 8.81644ZM10.862 9.72391C10.8628 9.72352 10.8637 9.72313 10.8645 9.72275L11.261 10.597L10.8594 9.72507C10.8603 9.72468 10.8611 9.72429 10.862 9.72391Z" clip-rule="evenodd"/></svg>

<svg xmlns="http://www.w3.org/2000/svg" width="24" height="24" fill="none"><path fill="currentColor" d="M4.319 3.359a.96.96 0 1 0-1.92 0v15.775c0 .242 0 .478.016.678.018.22.06.48.195.74v.002c.184.357.474.652.839.837.26.132.518.175.738.193.2.016.436.016.678.016H20.64a.96.96 0 1 0 0-1.92H4.896c-.285 0-.44 0-.552-.01l-.014-.001-.001-.014a8 8 0 0 1-.01-.552z"/><path fill="currentColor" fill-rule="evenodd" d="M20.38 8.816a.96.96 0 0 0-1.4-1.312l-3.664 3.91-2.998-1.558-.036-.02c-.13-.068-.393-.209-.687-.237h-.01c-.242-.021-.492.02-.723.125-.273.124-.477.348-.575.456l-.027.03-3.762 4.014A.96.96 0 1 0 7.9 15.536l3.663-3.909 2.998 1.557.036.02c.13.068.393.209.687.237h.01c.243.021.494-.02.726-.126l.003-.002c.266-.123.468-.343.566-.45l.028-.03zm-9.518.908.002-.001.397.874-.402-.872z" clip-rule="evenodd"/></svg>
